apps/aftereffects-cc/icon.svg

<svg role="img" focusable="false" aria-hidden="true" xmlns="http://www.w3.org/2000/svg" viewBox="0 0 14 14"><path d="m 9.7155,5.976 c -0.646,0 -0.918,0.5865 -0.9605,1.01125 l 1.81875,0 C 10.5825,6.605 10.4125,5.976 9.7155,5.976 Z M 5.083,4.599 l -0.017,0 C 4.981,4.9305 4.896,5.33 4.794,5.66975 l -0.442,1.411 1.47025,0 -0.4505,-1.411 C 5.2615,5.3215 5.168,4.9305 5.083,4.599 Z M 1.00025,1 l 0,12 11.9995,0 0,-12 -11.9995,0 z M 6.5195,9.49475 6.001,7.8715 l -1.81875,0 -0.493,1.62325 -1.0795,0 1.83575,-5.7285 1.33425,0 1.86125,5.7285 -1.1215,0 z m 5.00625,-1.7765 -2.77075,0 c 0.02575,0.748 0.612,1.071 1.275,1.071 0.4845,0 0.833,-0.068 1.1475,-0.187 l 0.15275,0.7225 c -0.357,0.1445 -0.84975,0.255 -1.44475,0.255 -1.34275,0 -2.13325,-0.8245 -2.13325,-2.09075 0,-1.14725 0.697,-2.22675 2.023,-2.22675 1.34275,0 1.78475,1.10475 1.78475,2.01425 -2.5e-4,0.1955 -0.017,0.34825 -0.03425,0.44175 z" fill="#C099CD"/></svg>

<svg xmlns="http://www.w3.org/2000/svg" aria-hidden="true" viewBox="0 0 14 14">
  <path fill="#C099CD" d="M9.7155 5.976c-.646 0-.918.5865-.9605 1.0112h1.8188c.0087-.3822-.1613-1.0112-.8583-1.0112zM5.083 4.599h-.017c-.085.3315-.17.731-.272 1.0707l-.442 1.411h1.4702l-.4505-1.411c-.1102-.3482-.2037-.7392-.2887-1.0707zM1.0003 1v12h11.9994V1H1.0002zm5.5192 8.4947L6.001 7.8716H4.1822l-.493 1.6233H2.6098l1.8358-5.7286h1.3342L7.641 9.4948H6.5195zm5.0062-1.7765H8.755c.0257.748.612 1.071 1.275 1.071.4845 0 .833-.068 1.1475-.187l.1527.7225c-.357.1445-.8497.255-1.4447.255-1.3428 0-2.1333-.8245-2.1333-2.0907 0-1.1472.697-2.2267 2.023-2.2267 1.3428 0 1.7848 1.1047 1.7848 2.0142-.0003.1955-.017.3483-.0343.4417z"/>
</svg>
